X:1
T:There Is Shelter at the Cross
T:There Is Shelter at the Cross
T:Charles Hutchinson Gabriel
T:Katharine Atherton Grimes, 1912
T:Public Domain Courtesy of the Cyber Hymnal™
T:Public Domain Courtesy of the Cyber Hymnal™
C:Charles Hutchinson Gabriel
Z:Public Domain
Z:Courtesy of the Cyber Hymnal™
%%score ( 1 2 ) ( 3 4 )
L:1/8
Q:1/4=92
M:4/4
K:G
V:1 treble 
V:2 treble 
V:3 bass 
V:4 bass 
V:1
 [DG][DA] | [GB][GB][GB][GB] [Gd]2 [DG][GB] | [EA][EA][EA][EA] [Ec]2 [EA][EG] | %3
w: 1.~Are you|worn with griefs and fears, Have you|wast- ed ma- ny years? There is|
w: 2.~Do you|long for love and peace, From the|tempt- er seek re- lease? There is|
w: 3.~Tho’ by|deeds of sin de- filed, You are|still the Sav- ior’s child, There is|
 [DF]<[DF] [CF]>[CE] [CD]2 [Fe]2 | d6 G[GA] | [GB][GB][GB][GB] [Gd]2 [DG][GB] | %6
w: shel- ter at the cross for|you. Have you|wan- dered far a- stray, In the|
w: shel- ter at the cross for|you. Do you|fear the snares of sin, Do you|
w: shel- ter at the cross for|you. Tho’ by|doubt and fear op- pressed, In its|
 [DA][DA][GB][GB] [Gc]2 [Ge][Ge] | [Gd]<[Gd] [Fd]>[Fc] [GB]2 [DA]2 | [DG]6 ||"^Refrain" [GB][Gc] | %10
w: dark- ness lost your way? There is|shel- ter at the cross for|you.||
w: bear its marks with- in? There is|shel- ter at the cross for|you.|There is|
w: sha- dow there is rest— There is|shel- ter at the cross for|you.||
 [Gd]<[G-d] d>d d2 e2 | c6 [FA][GB] | [Ac]<[A-c] c>c c2 d4 | B6 [GB][Gc] | %14
w: ||||
w: shel- ter at the cross for|you, There is|shel- ter at the cross for|you; By a|
w: ||||
 [Gd][Gd][Gd][GB] [DG]2 [DA][=FB] | [Ec][Ec][Ec][EA] [CE]2 [Ge][Ge] | %16
w: ||
w: world of sin de- nied, Je- sus|suf- fered there and died; There is|
w: ||
 [Gd]<[Gd] [Fd]>[Fc] [GB]2 [DA]2 | [DG]6 |] %18
w: ||
w: shel- ter at the cross for|you.|
w: ||
V:2
 x2 | x8 | x8 | x8 | (G2 A2 B2) G x | x8 | x8 | x8 | x6 || x2 | x2 G4 (GG) | (FEAG F2) x2 | %12
 x2 A4 (FF) x2 | (G2 G2 G2) x2 | x8 | x8 | x8 | x6 |] %18
V:3
 [G,B,][G,C] | [G,D][G,D][G,D][G,D] [G,B,]2 [G,B,][G,D] | %2
w: ~ ~|~ ~ ~ ~ ~ ~ ~|
 [C,C][C,C][C,C][C,C] [C,A,]2 [^C,A,][C,A,] | [D,A,]<[D,A,] [D,A,]>[D,G,] [D,F,]2 [B,,C]2 | %4
w: ~ ~ ~ ~ ~ ~ ~|~ ~ ~ ~ ~ ~|
 [G,B,]2 [G,C]2 [G,D]2 [G,B,][G,C] | [G,D][G,D][G,D][G,D] [G,B,]2 [G,B,][G,D] | %6
w: ~ ~ ~ ~ ~|~ ~ ~ ~ ~ ~ ~|
 [F,D][F,D][=F,D][F,D] [E,C]2 [C,C][C,C] | [D,B,]<[D,B,] [D,A,]>[D,E] [D,D]2 [D,C]2 | [G,,B,]6 || %9
w: ~ ~ ~ ~ ~ ~ ~|~ ~ ~ ~ ~ ~|~|
 [G,D][G,A,] | [G,B,]<[G,B,]- [G,B,]4 [G,B,][G,B,] | D2 D2 [D,D]2 [D,D][D,D] | %12
w: There is|shel- ter * at the|cross for you, There is|
 [D,D]<[D,D]- [D,D]4 [D,A,][D,D] x2 | [G,D]2 [G,D]2 [G,D]2 [G,D][G,A,] | %14
w: shel- ter * at the|cross for you: * *|
 [G,B,][G,B,][G,B,][G,D] [G,B,]2 [G,C][G,D] | [C,C][C,G,][C,G,][C,G,] [C,G,]2 [C,C][C,C] | %16
w: ||
 [D,B,]<[D,B,] [D,A,]>[D,E] [D,D]2 [D,C]2 | [G,,B,]6 |] %18
w: ||
V:4
 x2 | x8 | x8 | x8 | x8 | x8 | x8 | x8 | x6 || x2 | x8 | (A,G,) (F,E,) x4 | x10 | x8 | x8 | x8 | %16
 x8 | x6 |] %18

